!!!COM: Beethoven, Ludwig van
!!!CDT: 1770///-1827///
!!!OTL: Piano Sonata no. 30 in E major
!!!ODT: 1820///
!!!OPS: 109
!!!OMV: 1
!!!OMD: Vivace ma non troppo
**kern	**kern	**dynam
*staff2	*staff1	*staff1/2
*Ipiano	*Ipiano	*Ipiano
*clefF4	*clefG2	*
*k[f#c#g#d#]	*k[f#c#g#d#]	*
*E:	*E:	*
*M2/4	*M2/4	*
*MM144	*MM144	*
*	*^	*
!	!LO:TX:a:i:t=sempre legato	!	!LO:DY:t=%s dolce
8r	4g#	(16g#LK	p
.	.	8.bJ)	.
(16ELL	.	.	.
16BJJ)	.	.	.
=1	=1	=1	=1
8r	4b	(16bLK	.
.	.	8.f#J)	.
(16d#LL	.	.	.
16D#JJ)	.	.	.
8r	4e	(16eLK	.
.	.	8.g#J)	.
(16C#LL	.	.	.
16G#JJ)	.	.	.
=2	=2	=2	=2
8r	4g#	(16g#LK	.
.	.	8.d#J)	.
(16BLL	.	.	.
16BBJJ)	.	.	.
8r	4c#	(16c#LK	.
.	.	8.eJ)	.
(16AALL	.	.	.
16EJJ)	.	.	.
=3	=3	=3	=3
8r	4e	(16eLK	.
.	.	8.BJ)	.
(16G#LL<	.	.	.
16GG#JJ)	.	.	.
8r	4d# 4f#	(16ALK	.
.	.	8.BJ)	.
(16BBBLL	.	.	.
16BBJJ)	.	.	.
!!LO:LB:g=original
=4	=4	=4	=4
8r	4e 4g#	(16G#LK	.
.	.	8.BJ)	.
(16ELL	.	.	.
16EEJJ)	.	.	.
8r	4g#	(16g#LK	<
.	.	8.bJ)	.
(16ELL	.	.	.
16BJJ)	.	.	.
=5	=5	=5	=5
8r	4b	(16bLK	.
.	.	8.f#J)	.
(16d#LL	.	.	.
16D#JJ)	.	.	.
8r	(16a#LK	4e	.
.	8.eeJ)	.	.
(16C#LL	.	.	.
16F#JJ)	.	.	.
=6	=6	=6	=6
8r	(16dd#LK	4d#	.
.	8.bJ)	.	.
(16BLL	.	.	.
16BBJJ)	.	.	.
8r	4b	(16bLK	.
.	.	8.dd#J)	.
(16F#LL	.	.	.
16f#JJ)	.	.	.
=7	=7	=7	=7
8r	4ee	(16eeLK	.
.	.	8.bJ)	.
(16g#LL	.	.	.
16G#JJ)	.	.	.
8r	4b	(16g#LK	.
.	.	8.gg#J)	.
(16ELL	.	.	.
16eJJ)	.	.	.
=8	=8	=8	=8
8r	4ff#	(16ff#LK	.
.	.	8.b 8.dd#J)	.
(16f#LL	.	.	.
16F#JJ)	.	.	.
8r	(16cc#LK	4a#	.
.	8.aa#J)	.	.
(16FF#LL<	.	.	.
16F#JJ)	.	.	.
*	*v	*v	*
!!LO:LB:g=original
=9||	=9||	=9||
*M3/4	*M3/4	*
*MM50	*MM50	*
*^	*	*
!!LO:TX:a:B:t=Adagio expressivo
.	.	[[32qanLLL	.
.	.	[[32qb#	.
.	.	[[32qdd#	.
.	.	[32qff#JJJ	.
8r	8r	4an__ 4b#__ 4dd#__ 4ff#_ [4aan	f
16B#' (16d#'LL	8F# 8A	.	.
16e'JJ)	.	.	.
*clefG2	*	*	*
(16f#'LL	8rA	8a]] 8b#]] 8dd#]] 8ff#] 8aaL]	.
16g#'J)	.	.	.
8aJ	8B# 8d#	(16gg#'L	p
.	.	16ff#'JJ)	.
16e (16g#LL	16c#LL	16cc# (16eeLL	<
16a)	16f#	16b# 16dd#)	.
(16g#'	16e	16cc#' (16ee'	.
16f#'JJ)	16d#JJ	16g#' 16b#' 16ff#'JJ)	.
*clefF4	*	*	*
=10	=10	=10	=10
*	*	*^	*
8ryy	16r	(>8ff##L>	4ryy	f
.	[<16E	.	.	.
(16c#'LL	8E] 8G#	[8g# [8cc# [8ee [8gg#J	.	.
16d#'JJ	.	.	.	.
*clefG2	*	*	*	*
16e'LL	4ryy	8g#] 8cc#] 8ee] 8gg#L]	8ryy	.
16f#J	.	.	.	.
8A# 8gnJ)	.	16ff#'L	8cc#	p
.	.	16ee'JJ)	.	.
*clefF4	*	*	*	*
16B (16d#LL	4ryy	(16f# 16dd#LL	4ryy	<
16A# 16c#)	.	16e) 16f# 16cc#	.	.
(16B'	.	(16d#' 16f#' 16dd#'	.	.
16G#' 16B' 16e'JJ)	.	16b') 16ee'JJ	.	.
*v	*v	*	*	*
*	*v	*v	*
=11	=11	=11
8D# 8BL	(16ff#LL	p
.	16b	.
8G# 8BJ	16ff#	.
.	16eeJJ	.
8F# 8BL	4dd#)	.
8F# 8B 8d#J	.	.
!	!LO:TUP:a	!
8F# 8A# 8c#L	(40cc#LLL	<
.	40dd#	.
.	40cc#	.
.	40b#	.
.	40cc#JJJ)	.
!	!LO:TUP:a	!
8F# 8An 8B# 8d#J	(48dd#LLL	.
.	48ee	.
.	48ee#	.
.	48ff#	.
.	48ff##	.
.	48gg#JJJ)	.
!!LO:LB:g=original
=12	=12	=12
*ped	*	*
[2FFF#/ [<2FF#/	32aaLLL	f
.	32aaa	.
.	32ddd#	.
.	32bb#JJJ	.
.	32aaLLL	.
.	32dd#	.
.	32b#	.
.	32aJJJ	.
.	32d#LLL	.
.	32B#	.
.	32A<	.
.	32D#<JJJ	.
.	(<48BB#<LLL	p
.	48AA<	.
.	48BB#<	.
.	48D#<	.
.	48A<	.
.	48B#X<JJJ)	.
8FFF#/] 8FF#/]	64d#LLLL	<
.	64a	.
.	64b#X	.
.	64dd#JJJJ	.
.	64aaLLLL	.
.	64bb#X	.
*Xped	*	*
.	64ddd#	.
.	64aaaJJJJ	.
(16EEE# 16EE#LL	16gg# (16ggg#LL	p
16DDD#) 16DD#JJ	16ff## 16fff##JJ)	.
!!LO:LB:g=original
=13	=13	=13
*ped	*	*
4DDD#/ 4DD#/	(48fff##LLL	f
.	48ddd#	.
.	48aa#JJJ)	.
*	*Xtuplet	*
.	(48ff##LLL	.
.	48dd#	.
.	48a#JJJ)	.
.	(48f##LLL	.
.	48d#	.
.	48A#JJJ)	.
.	(<48F##<LLL	.
.	48D#<	.
.	48AA#<JJJ)	.
8.ryy	64DD#<LLLL<	.
.	64FF##<	.
.	64AA#X<	.
.	64D#<JJJJ	.
!	!LO:TX:a:i:t=m.d.	!
.	64F##X<LLLL>	.
.	64A#X<	.
.	64d#	.
.	64f##XJJJJ	.
.	64D#<LLLL<	>
.	64F##X<	.
.	64A#X<	.
.	64d#<JJJJ	.
16r	64f##LLLL>	.
.	64a#X	.
.	64dd#	.
.	64ff##XJJJJ	.
*clefG2	*	*
16r>	64d#<LLLL	.
.	64f##X<	.
.	64a#X<	.
.	64dd#<JJJJ	.
16r	64ff##LLLL	.
.	64aa#X	.
.	64ddd#	.
.	64fff##XJJJJ	.
*Xped	*	*
*clefF4	*	*
[16DD# 16AA# 16D#LL	16ff## (16fff##LL	p
16DD#] 16BB 16D#JJ	16ff# 16fff#JJ)	.
!!LO:LB:g=original
=14	=14	=14
!	!LO:TX:c:i:t=expressivo	!
16DD# 16BB 16D#LL<	(32fff#LLL	.
.	32bb	.
16D# 16BJJ	32aa#	.
.	32bbJJJ	.
16r	32aa#LLL	.
.	32bb	.
16G# 16B 16e	32fff#	.
.	32eeeJJJ)	.
*	*8va	*
16r	(32ddd#LLL	.
.	32aaa#X	.
16F# 16B 16d#	32bbb	.
.	32aaa#JJJ)	.
*clefG2	*	*
*tuplet	*tuplet	*
(48ddd#LLL	(48bbbLLL	.
48ccc#	48aaa#	.
48aa#JJJ)	48fff#JJJ)	.
*Xtuplet	*Xtuplet	*
!	!	!LO:HP:t=crescendo
(48ccc#LLL	(48aaa#LLL	<
48bb	48ggg#	.
48gg#JJJ)	48eeeJJJ)	.
(48bbLLL	(48ggg#LLL	.
48aa#	48fff#	.
48ff#JJJ)	48ddd#JJJ)	.
(48aa#LLL	(48fff#LLL	.
48gg#	48eee	.
48eeJJJ)	48ccc#JJJ)	.
(48gg#LLL	(48eeeLLL	.
48ff#	48ddd#	.
48dd#JJJ)	48bbJJJ)	.
(48ff#LLL	(48ddd#LLL	.
48ee	48ccc#	.
48cc#JJJ)	48aa#JJJ)	.
*	*X8va	*
!!LO:LB:g=original
=15	=15	=15
16b 16dd#	(48bbLLL	.
.	48aa#	.
.	48gg#	.
*clefF4	*	*
16F#'LL	48ff#	.
.	48ee	.
.	48dd#JJJ)	.
16G#'	(48cc#LLL	.
.	48b	.
.	48a#	.
16A#'JJ	48g#	.
.	48f#	.
.	48eJJJ)	.
16B	(>48d#LLL	.
.	48c#	.
.	48B	.
16r	48A#<	.
.	48G#<	.
.	48F#<JJJ)	.
!LO:DY:rj	!LO:TX:a:B:t=Ritardando	!
16BBBz	(48E<LLL	.
.	48D#<	.
.	48C#<	.
16r	48BB<	.
.	48AA#<	.
.	48BB<JJJ)	.
8ryy	(<48C#<LLL	>
.	48D#<	.
.	48E<	.
.	48F#<	.
.	48G#<	.
.	48A#X<JJJ)	.
8rBB;	(48BLLL	.
.	48c#	.
.	48d#	.
.	48e	.
.	48f#	.
.	48g#JJJ)	.
4ryy	(16a#X'LL	.
.	16b'	.
.	16cc#'	.
.	16dd#'JJ	.
4ryy	16ee'LL	.
.	16ff#'	.
.	16gg#'	.
.	16aa#'JJ	.
*clefG2	*	*
!!LO:LB:g=original
=16||	=16||	=16||
!!LO:TX:a:B:t=Tempo 1ยบ
*M2/4	*M2/4	*
*MM144	*MM144	*
*^	*	*
!	!	!LO:TX:c:i:t=dolce	!
(16d#LK	4d#	8bb')	.
8.f#J)	.	.	.
.	.	(16bLL	.
.	.	16ff#JJ)	.
=17	=17	=17	=17
(16f#LK	4f#	8r	.
8.c#J)	.	.	.
.	.	(16bLL<	.
.	.	16a#JJ)	.
(16eLK	4e	8r	.
8.g#J)	.	.	.
.	.	(16cc#LL	.
.	.	16gg#JJ)	.
=18	=18	=18	=18
(16g#LK	4g#	8r	.
8.d#J)	.	.	.
.	.	(16cc#LL	.
.	.	16b#JJ)	.
(16f#LK	4f#	8r	.
8.aJ)	.	.	.
.	.	16b# (16dd#LL	.
.	.	16bb#JJ)	.
=19	=19	=19	=19
(16eLK	4e	8r	.
8.g#J)	.	.	.
.	.	16cc# (16eeLL	.
.	.	16ccc#JJ)	.
(16f#LK	4d#	8r	.
8.g#J)	.	.	.
.	.	(16bb#LL	.
.	.	16ddd#JJ)	.
=20	=20	=20	=20
(16eLK	4c#	8r	.
8.g#J)	.	.	.
.	.	(16gg#LL	.
.	.	16eeeJJ)	.
(16d#LK	4B#	8r	.
8.g#J)	.	.	.
.	.	16ff# (16ddd#LL	.
.	.	16gg#JJ)	.
=21	=21	=21	=21
(16eLK	4c#	8r	.
8.g#J)	.	.	.
.	.	16ee (16gg#LL	.
.	.	16eeeJJ)	.
(16c#LK	4A	8r	.
8.f#J)	.	.	.
.	.	16ff# (16ccc#LL	.
.	.	16fff#JJ)	.
!!LO:LB:g=original
=22	=22	=22	=22
*	*	*^	*
(16d#LK	4G#	8r	4ryy	.
8.g#J)	.	.	.	.
.	.	16gg# (16bb#LL	.	.
.	.	16ggg#JJ)	.	.
8r	4ryy	[4dd#	(16a#LK	.
!	!	!	!LO:TX:a:i:t=sempre legato	!
.	.	.	8.d#J)	.
*clefF4	*clefF4	*	*	*
(16F##LL	.	.	.	.
16A#JJ)	.	.	.	.
*v	*v	*	*	*
=23	=23	=23	=23
8r	4dd#]	(16bnLK	.
.	.	8.d#J)	.
(16G#LL	.	.	.
16BJJ)	.	.	.
8r	4cc#	(16f##LK	.
.	.	8.d#J)	.
(16AA#LL	.	.	.
16C#JJ)	.	.	.
=24	=24	=24	=24
8r	4b	(16g#LK	.
.	.	8.d#J)	.
(16BBLL	.	.	.
16D#JJ)	.	.	.
8r	4f## 4a#	(16eLK	.
.	.	8.c#J)	.
(16C#LL	.	.	.
16EJJ)	.	.	.
=25	=25	=25	=25
8r	4g# 4b	(16e#LK	.
.	.	8.BJ)	.
(16C##LL	.	.	.
16E#JJ)	.	.	.
8r	4e# 4g#	(16BLK	.
.	.	8.G#J)	.
(16CC##LL	.	.	.
16C##JJ)	.	.	.
=26	=26	=26	=26
!	!	!	!LO:DY:rj
8r	4d# 4f##	(16A#LK	p
.	.	8.F##J)	.
(16DD#LL	.	.	.
16D#JJ)	.	.	.
8r	4d# 4f##	(16A#LK	.
.	.	8.F##J)	.
(16DD#LL	.	.	.
16D#JJ)	.	.	.
!!LO:LB:g=original
=27	=27	=27	=27
8r	4g#	(16d#LK	.
.	.	8.G#J)	.
(16GG#LL	.	.	.
16D#JJ)	.	.	.
8r	(4f## 4a#	(16d#LK	.
.	.	8.A#J))	.
(16DD#LL	.	.	.
16D#JJ)	.	.	.
=28	=28	=28	=28
!	!	!	!LO:HP:a
8r	4g# 4b	(16d#LK	<
.	.	8.BJ)	.
(16GGG#LL	.	.	.
16GG#JJ)	.	.	.
8r	4f## 4a#	(16d#LK	.
.	.	8.A#J)	.
(16DD#LL	.	.	.
16D#JJ)	.	.	.
=29	=29	=29	=29
8r	4g# 4b	(16d#LK	.
.	.	8.BJ)	.
(16GG#LL<	.	.	.
16G#JJ)	.	.	.
8r	4a# 4cc#	(16f#XLK	.
.	.	8.c#J)	.
(16FF#LL	.	.	.
16F#JJ)	.	.	.
=30	=30	=30	=30
8r	4b 4dd#	(16f#LK	.
.	.	8.d#J)	.
(16BBBLL	.	.	.
16BBJJ)	.	.	.
8r	4a# 4cc#	(16f#LK	.
.	.	8.c#J)	.
(16FF#LL	.	.	.
16F#JJ)	.	.	.
=31	=31	=31	=31
8r	4b 4dd#	(16f#LK	.
.	.	8.d#J)	.
(16BBLL	.	.	.
16BJJ)	.	.	.
8r	4cc## 4ee#	(16a#LK	.
.	.	8.e#J)	.
(16AA#LL	.	.	.
16A#JJ)	.	.	.
!!LO:LB:g=original
=32	=32	=32	=32
8r	4dd# 4ff# 4a#	(16a#LK	.
.	.	8.f#J)	.
(16DD#LL	.	.	.
16D#JJ)	.	.	.
8r	4cc## 4ee# 4a#	(16a#XLK	.
.	.	8.e#J)	.
(16AA#LL	.	.	.
16A#JJ)	.	.	.
=33	=33	=33	=33
8r	4dd# 4ff# 4a#	(16a#LK	.
.	.	8.f#J)	.
(16D#LL	.	.	.
16d#JJ)	.	.	.
8r	4ee# 4gg# 4cc#	(16cc#XLK	.
.	.	8.g#J)	.
(16C#LL	.	.	.
16c#JJ)	.	.	.
=34	=34	=34	=34
8r	4ff# 4aa# 4cc#	(16cc#LK	.
.	.	8.a#J)	.
(16FF#LL<	.	.	.
16F#JJ)	.	.	.
8r	4ff# 4bb 4dd#	(16dd#LK	sfp
!	!	!LO:TX:a:i:t=sempre legato	!
.	.	8.bJ)	.
(16f#LL	.	.	.
16F#JJ)	.	.	.
=35	=35	=35	=35
8r	4ff# 4gg#	(16b 16ff#LK	.
.	.	8.g#J)	.
(16FF#LL<	.	.	.
16F#JJ)	.	.	.
8r	4ff# 4aa# 4cc#	(16cc#LK	sfp
.	.	8.a#J)	.
(16f#LL	.	.	.
16F#JJ)	.	.	.
=36	=36	=36	=36
8r	4ff# 4bb 4dd#	(16dd#LK	.
.	.	8.bJ)	.
(16FF#LL<	.	.	.
16F#JJ)	.	.	.
8r	4aa# 4ccc# 4ff#	(16ff#LK	sfp
.	.	8.cc#J)	.
(16f#LL	.	.	.
16F#JJ)	.	.	.
!!LO:LB:g=original
=37	=37	=37	=37
8r	4bb 4ddd# 4ff#	(16ff#LK	.
.	.	8.dd#J)	.
(16BBBLL	.	.	.
16BBJJ)	.	.	.
8r	4bb 4eee 4gg#	(16gg#LK	sfp
.	.	8.eeJ)	.
(16BLL	.	.	.
16BBJJ)	.	.	.
=38	=38	=38	=38
8r	4bb 4ccc# 4ee	(16eeLK	.
.	.	8.cc#J)	.
(16BBBLL	.	.	.
16BBJJ)	.	.	.
8r	4bb 4eee 4ff#	(16ff#LK	sfp
.	.	8.dd#J)	.
(16BLL	.	.	.
16BBJJ)	.	.	.
=39	=39	=39	=39
8r	4bb 4eee 4gg#	(16gg#LK	.
.	.	8.eeJ)	.
(16BBBLL	.	.	.
16BBJJ)	.	.	.
8r	4ddd# 4fff# 4bb	(16bbLK	sfp
.	.	8.ff#J)	.
(16BLL	.	.	.
16BBJJ)	.	.	.
=40	=40	=40	=40
8r	4bb 4ddd# 4ff#	(16ff#LK	.
.	.	8.dd#J)	.
(16AAnLL	.	.	.
16AJJ)	.	.	.
8r	4bb 4eee 4gg#	(16gg#LK	sfp
.	.	8.eeJ)	.
(16G#LL<	.	.	.
16GG#JJ)	.	.	.
=41	=41	=41	=41
8r	4ddd# 4fff# 4bb	(16bbLK	.
.	.	8.aaJ)	.
(16FF#LL	.	.	.
16F#JJ)	.	.	.
8r	4eee 4ggg# 4bb	(16bbLK	sfp
.	.	8.gg#J)	.
(16ELL	.	.	.
16EEJJ)	.	.	.
!!LO:LB:g=original
=42	=42	=42	=42
*	*8va	*8va	*
8r	4fff# 4aaa 4cccn	(16cccnLK	.
.	.	8.aaJ)	.
(16DD#LL	.	.	.
16D#JJ)	.	.	.
8r	4eee 4gggn 4aaa#	(16eeeLK	sfp
.	.	8.aa#J)	.
(16C#LL	.	.	.
16CC#JJ)	.	.	.
=43	=43	=43	=43
8r	4bbb 4ddd#	(16ddd#LK	<
.	.	8.bbJ)	.
(16BBBLL	.	.	.
16BBJJ)	.	.	.
8r	4bbb 4ggg#	(16ggg#XLK	.
.	.	8.bbJ)	.
(16E#LL	.	.	.
16EE#JJ)	.	.	.
=44	=44	=44	=44
8r	4bbb	(16aaanLK	.
.	.	8.bbJ)	.
(16FF#LL	.	.	.
16F#JJ)	.	.	.
8r	4bbb 4fff#	(16fff#LK	.
.	.	8.bbJ)	.
(16D#LL	.	.	.
16DD#JJ)	.	.	.
=45	=45	=45	=45
8r	4bbb 4ddd#	(16ddd#LK	.
.	.	8.bbJ)	.
(16BBBLL	.	.	.
16BBJJ)	.	.	.
8r	4bbb 4ggg#	(16ggg#LK	.
.	.	8.bbJ)	.
(16E#LL	.	.	.
16EE#JJ)	.	.	.
=46	=46	=46	=46
8r	4bbb	(16aaaLK	.
.	.	8.bbJ)	.
(16FF#LL	.	.	.
16F#JJ)	.	.	.
8r	4bbb 4eee#	(16eee#LK	.
.	.	8.bbJ)	.
(16C##LL	.	.	.
16CC##JJ)	.	.	.
!!LO:LB:g=original
=47	=47	=47	=47
8r	4bbb 4fff#	(16fff#LK	.
.	.	8.bbJ)	.
(16DD#LL	.	.	.
16D#JJ)	.	.	.
8r	(16ggg#LK	4ggg#	f
.	8.bbbJ)	.	.
(16EEnLL	.	.	.
[16EnJJ)	.	.	.
=48	=48	=48	=48
8EL]	(16bbbLK	4bbb	.
.	8.fff#J)	.	.
(16DD#L	.	.	.
[16D#JJ)	.	.	.
8D#L]	(16eeeLK	4eee	.
.	8.ggg#J)	.	.
(16CC#L	.	.	.
[16C#JJ)	.	.	.
=49	=49	=49	=49
8C#L]	(16ggg#LK	4ggg#	.
.	8.ddd#J)	.	.
(16BBBL	.	.	.
[16BBJJ)	.	.	.
8BBL]	(16ccc#LK	4ccc#	.
.	8.eeeJ)	.	.
(16AAAL	.	.	.
[16AAJJ)	.	.	.
=50	=50	=50	=50
8AAL]	(16eeeLK	4eee	.
.	8.bbJ)	.	.
(16GGG#L	.	.	.
[16GG#JJ)	.	.	.
8GG#L]	4ddd# 4fff#	(16bbLK	.
.	.	8.aaJ)	.
(16FFF#L	.	.	.
[16FF#JJ)	.	.	.
=51	=51	=51	=51
*^	*	*	*
4ryy	8FF#L]	4eee 4ggg#	(16bbLK	.
.	.	.	8.gg#J)	.
*	*	*X8va	*X8va	*
.	(16EEEL	.	.	.
.	16EEJJ)	.	.	.
(16G#LK	4E	8r	4ryy	p
8.BJ)	.	.	.	.
.	.	(16g#LL	.	.
.	.	16bJJ)	.	.
*	*	*v	*v	*
!!LO:LB:g=original
=52	=52	=52	=52
(16BLK	4D#	8r	.
8.F#J)	.	.	.
.	.	(16bLL	.
.	.	16ff#JJ)	.
(16A#LK	8C#	8r	.
8.eJ)	.	.	.
.	8r	16ee (16ff#LL	.
.	.	16aa#JJ)	.
=53	=53	=53	=53
*	*	*^	*
16d#LK	8BB	4ryy	8r	.
[8.BJ	.	.	.	.
.	8r	.	(16aa#LL	.
.	.	.	16bbJJ)	.
*	*	*8va	*8va	*
4ryy	8BL]	(16ccc#LK	4ccc#	.
.	.	8.eeeJ)	.	<
.	16AAnL	.	.	.
.	[16AnJJ	.	.	.
*v	*v	*	*	*
=54	=54	=54	=54
8AL]	(16eeeLK	4eee	.
.	8.bbJ)	.	.
16GG#L	.	.	.
[16G#JJ	.	.	.
8G#L]	(16bbLK	4aan	.
.	8.aaanJ)	.	.
16FF#L	.	.	.
[16F#JJ	.	.	.
=55	=55	=55	=55
8F#L]	16ggg#LK	4gg# 4bb	.
.	8.eeeJ	.	.
(16EEL	.	.	.
16EJJ)	.	.	.
8r	(16ccc#LK	4ee 4aa	.
.	8.eeeJ)	.	.
16ALL	.	.	.
16AAJJ	.	.	.
=56	=56	=56	=56
8r	(16gg#LK	4ee	.
.	8.eeeJ)	.	.
(16BBLL	.	.	.
16BJJ)	.	.	.
8r	(16ff#LK	4dd#	.
.	8.ddd#J)	.	.
*	*X8va	*X8va	*
(16BBLL	.	.	.
16BBBJJ)	.	.	.
*	*v	*v	*
!!LO:LB:g=original
=57||	=57||	=57||
*M3/4	*M3/4	*
*MM50	*MM50	*
*^	*^	*
*clefG2	*	*	*	*
.	.	.	[[32qddnLLL	p <
.	.	.	[[32qee#	.
.	.	.	[[32qgg#	.
.	.	.	[32qbbJJJ	.
8r	8r	4ryy	4ddn]] 4ee#]] 4gg#]] 4bb] [4dddn	[ f
(16g#'LL	8B 8dn 8e#	.	.	.
16a'JJ)	.	.	.	.
(16b'LL	8r	4ryy	8dddL]	.
16cc#'J)	.	.	.	.
8ddnJ	8e# 8g#	.	(16ccc#'L	p
.	.	.	16bb'JJ)	.
(16f# 16aLL	4ryy	16ff# (16aaLL	16cc#LL	<
16g#) 16b	.	16gg#)	16ee#	.
(16f#' 16a'	.	(16aa'	16cc# 16ff#	.
16c#') 16e#' 16g#'JJ	.	16gg#' 16bb'JJ)	16cc# 16ee#JJ	.
=58	=58	=58	=58	=58
8r	8r	(8bb#L	4ryy	f
(32f#LLL	8A 8c#	[8ccc#J)	.	.
32e#	.	.	.	.
32f#	.	.	.	.
32g#JJJ	.	.	.	.
32aLLL	8rA	8ccc#L]	8ryy	.
32g#	.	.	.	.
32a	.	.	.	.
32bJJJ)	.	.	.	.
8ccn	8d# 8f#	16bbnL	8ff#	p
.	.	16aaJJ	.	.
(16en 16g#LL	4ryy	(16gg#LL	16bLL	<
(16d#) 16f#	.	16ff#)	16a 16b	.
16e'	.	(16gg#'	16g# 16b	.
16c#') 16e'JJ	.	16aa'JJ)	16a 16eeJJ	.
*v	*v	*	*	*
*	*v	*v	*
=59	=59	=59
8G# 8eL	(16bbLL	p
.	16ee	.
8c# 8e 8aJ	16bb	.
.	16aaJJ)	.
8B 8e 8g#L	4gg#	.
8B 8e 8a#J	.	.
16B 16d# 16bLL	(80ff#LLLL	<
.	80gg#	.
.	80ff#	.
.	80ee#	.
.	80ff#JJJJ	.
16B 16dn 16e# 16g#JJ	64gg#LLLL	.
.	64aa	.
.	64bb	.
.	64ccc#JJJJ)	.
*clefF4	*	*
8GGG# 8GG#	8ddn 8ffn 8bb 8dddn	.
!!LO:LB:g=original
=60||	=60||	=60||
*k[]	*k[]	*
*ped	*	*
[4GGGn [4DDn [4FFn [4GGn	32dd 32ff 32bb 32dddLLL	f
.	32bb	.
.	32gg	.
.	32ffJJJ	.
.	32ddLLL	.
.	32b	.
.	32g	.
.	32fJJJ	.
*	*tuplet	*
16GGG] 16DD] 16FF] 16GG]	(48dLLL	.
.	48B	.
.	48GJJJ)	.
*	*tuplet	*
16ryy	(48F<LLL<	.
.	48D<	.
.	48BB<JJJ)	.
!	!LO:TX:b=2:i:t=m.g.	!
16r>	64GG<LLLL	.
.	64BB<	.
.	64D<	.
.	64F<JJJJ	.
!	!LO:TX:a:i:t=m.d.	!
16r	64GLLLL	.
.	64B	.
.	64d	.
.	64fJJJJ	.
*clefG2	*	*
64gLLLL	16r	.
64b	.	.
64dd	.	.
64ffJJJJ	.	.
16r	64ddLLLL	.
.	64ff	.
.	64gg	.
*Xped	*	*
.	64bbJJJJ	.
*clefF4	*	*
(16GGG 16GGLL	16dd 16ff (16dddLL	>
.	.	]
16CC) 16CJJ	16cc 16ee 16cccJJ)	.
!!LO:LB:g=original
=61	=61	=61
!LO:PED:rj	!	!
*ped	*	*
8CC 8EE 8GG 8C	48cccLLL	(ff
.	48gg	.
.	48eeJJJ	.
*	*Xtuplet	*
.	48ccLLL<	.
.	48g	.
.	48eJJJ	.
16ryy	48cLLL	.
.	48G<	.
.	48E<JJJ	.
16ryy	48C<LLL	.
.	48GG<	.
.	48EE<JJJ	.
96CCLLLL	32r	.
96EE	.	.
96GGJJJJ	.	.
32r	96C<LLLL	.
.	96E<	.
.	96G<JJJJ	.
32r>	96c<LLLL<	>
.	96e<	.
.	96g<JJJJ	.
32ryy	96ccLLLL	.
.	96ee	.
*Xped	*	*
.	96ggJJJJ	.
(16GGG 16GGLL	16cc 16ee (16cccLL	.
16GGG#) 16GG#JJ	16b 16ee 16bbJJ)	<
*ped	*	*
8GGG# 8EE 8GG#L	8b 8ee 8bbL	.
*	*8va	*
[8GGG# [8EE [8GG#J	[8bb [8eee [8bbbJ	sf >
.	.	]
!!LO:LB:g=original
=62||	=62||	=62||
*k[f#c#g#d#]	*k[f#c#g#d#]	*
!	!	!LO:DY:t=%s espressivo
16GGG#] 16EE] 16GG#LL]	32bb] 32eee] (32bbbLLL]	p
.	32eee	.
16GG# 16BB 16EJJ	32ddd#	.
.	32eee	.
16r	32ddd#	.
.	32eee	.
16C# 16E 16A	32bbb	.
.	32aaaJJJ)	.
*Xped	*	*
16r	(32ggg#LLL	.
.	32ddd#	.
16BB 16E 16G#	32eee	.
.	32ddd#JJJ)	.
*	*X8va	*
*clefG2	*	*
*tuplet	*tuplet	*
(48gg#LLL	(48eeeLLL	<
48ee	48ccc#	.
48ff#	48ddd#	.
48dd#	48bb	.
48ee	48ccc#	.
48cc#JJJ)	48aaJJJ)	.
*Xtuplet	*Xtuplet	*
(48dd#LLL	(48bbLLL	.
48b	48gg#	.
48cc#	48aa	.
48a	48ff#	.
48b	48gg#	.
48g#JJJ)	48eeJJJ)	.
(48aLLL	(48ff#LLL	.
48f#	48dd#	.
48g#	48ee	.
48e	48cc#	.
48f#	48dd#	.
48d#JJJ)	48bJJJ)	.
*clefF4	*	*
!!LO:LB:g=original
=63	=63	=63
(48eLLL	(48cc#LLL	.
48c#	48a	.
48d#	48b	.
48B	48g#	.
48c#	48a	.
48AJJJ)	48f#JJJ)	.
(48BLLL	(48g#LLL	.
48G#	48e	.
48A	48f#	.
48F#	48d#	.
48G#	48e	.
48EJJJ)	48c#JJJ)	.
*	*clefF4	*
(48F#LLL	(48d#LLL	.
48D#	48B	.
48E	48c#	.
48C#	48A	.
48D#	48B	.
48BBJJJ)	48G#JJJ)	.
(48C#LLL	(48ALLL	.
48AA	48F#	.
48BB	48G#	.
48GG#	48E	.
48AA	48F#	.
48FF#JJJ)	48D#JJJ)	.
(48GG#LLL	(48ELLL	>
48EE	48C#	.
48FF#	48D#	.
48DD#	48BB	.
48EE	48C#)	.
48CC#JJJ)	48AA#JJJ	.
*tuplet	*	*
(24BBBLL	(48BBLLL	.
.	48AAn	.
24CC#	48BB	.
.	48GG#	.
24DD#JJ)	48BB	.
.	48FF#JJJ)	.
*Xtuplet	*	*
!!LO:LB:g=original
=64	=64	=64
4EEE	(48EELLL	.
.	48BB	.
.	48GG#	.
.	48E	.
.	48BB	.
.	48G#JJJ)	.
.	(48ELLL	.
.	48B	.
.	48G#	.
.	48e	.
.	48B	.
.	48g#JJJ)	.
*	*clefG2	*
4r;	(48eLLL	.
.	48b	.
.	48g#	.
.	48ee	.
.	48b	.
.	48gg#JJJ)	.
!!LO:TX:a:B:t=Ritard.
.	(40eeLLL	.
.	40bb	.
.	40gg#	.
.	40eee	.
.	40bbJJJ)	.
4r	(8ggg#L	.
.	8eeeJ)	.
=65||	=65||	=65||
*M2/4	*M2/4	*
*MM152	*MM152	*
*	*^	*
4r	4ryy	(8bbL	.
.	.	8bb#J)	.
!!LO:TX:a:B:t=a Tempo
!	!	!LO:TX:c:i:t=legato	!
8r	(<16ccc#LK	4ccc#	.
.	8.eeeJ)	.	.
*clefG2	*	*	*
(16aLL	.	.	.
16eeJJ)	.	.	.
=66	=66	=66	=66
8r	(<16eeeLK	4eee	.
.	8.bbnJ)	.	.
(16eeLL	.	.	.
16g#JJ)	.	.	.
8r	(<16aaLK	4aa	.
.	8.bbJ)	.	.
(16f#LL	.	.	.
16dd#JJ)	.	.	.
=67	=67	=67	=67
*^	*	*	*
4ryy	8r	(<16bbLK	4bb	.
.	.	8.gg#J)	.	.
.	(16eeLL<	.	.	.
.	16eJJ)	.	.	.
(16cc#LK	4a	4ryy	8r	.
8.eeJ)	.	.	.	.
.	.	.	(16ccc#LL	.
.	.	.	16eeeJJ)	.
*	*	*v	*v	*
!!LO:LB:g=original
=68	=68	=68	=68
(16eeLK	4g#	8r	.
8.bJ)	.	.	.
.	.	(16eeeLL	.
.	.	16bbJJ)	.
(16aLK	4f#	8r	.
8.bJ)	.	.	.
.	.	(16bbLL	.
.	.	16ddd# 16fff#JJ)	.
=69	=69	=69	=69
*	*	*^	*
(16bLK	4e	4ryy	8r	.
8.g#J)	.	.	.	.
.	.	.	16eee (16ggg#LL	.
.	.	.	16bbJJ)	.
4ryy	8r	(16ff#LK	4ff#	.
.	.	8.bbJ)	.	.
.	(16dd#LL	.	.	.
.	16bJJ)	.	.	.
*v	*v	*	*	*
=70	=70	=70	=70
8r	(16gg#LK	4gg#	<
.	8.bbJ)	.	.
(16eeLL	.	.	.
16bJJ)	.	.	.
8r	(16aaLK	4aa	.
.	8.bbJ)	.	.
(16ff#LL	.	.	.
16bJJ)	.	.	[[
=71	=71	=71	=71
*^	*	*	*
4ryy	8r	(16bbLK	4bb	.
.	.	8.eeeJ)	.	.
.	(16gg#LL	.	.	.
.	16bJJ)	.	.	.
(16f#LK	4d#	4ryy	8r	.
8.bJ)	.	.	.	.
.	.	.	(16bbLL	.
.	.	.	16ff#JJ)	.
*	*	*v	*v	*
=72	=72	=72	=72
(16g#LK	4e	8r	.
8.bJ)	.	.	.
.	.	(16bbLL	.
.	.	16gg#JJ)	.
(16aLK	4f#	8r	.
8.bJ)	.	.	.
.	.	(16bbLL	.
.	.	16aaJJ)	.
=73	=73	=73	=73
*	*	*^	*
(16bLK	4g#	4ryy	8r	.
8.eeJ)	.	.	.	.
.	.	.	(16bbLL	.
.	.	.	16gg#JJ)	.
4ryy	8r	(16ff#LK	4b 4dd#	.
.	.	8.bbJ)	.	.
.	(16f# 16aLL	.	.	.
.	16BJJ)	.	.	.
*v	*v	*	*	*
!!LO:LB:g=original
=74	=74	=74	=74
8r	(16gg#LK	4b 4ee	<
.	8.bbJ)	.	.
(16e 16g#LL	.	.	.
16BJJ)	.	.	.
8r	(16aaLK	4b 4ff#	.
.	8.bbJ)	.	.
(16d# 16f#LL	.	.	.
16BJJ)	.	.	[[
*clefF4	*	*	*
*	*v	*v	*
=75	=75	=75
4r	4r	p
4BB 4F# 4A	4B 4d# 4f#	.
=76	=76	=76
4r	4r	.
4BB 4E 4G#	4B 4e 4g#	.
=77	=77	=77
4r	4r	.
4BB# 4D# 4F# 4A	4B# 4d# 4f# 4a	.
=78	=78	=78
!	!LO:TX:c:i:t=legato	!
4C# 4E 4G#	4c# 4e 4g#	.
[4AA\ [4C#\ 4E#\	[4c# 4e# [4cc#	.
=79	=79	=79
*^	*	*
4C#] 4F#	2AA_	4c#] 4f# 4cc#]	.
4Dn 4E# 4G#	.	4B 4dn 4e# 4g# 4b	.
=80	=80	=80	=80
4C# 4F#	2AA_	4A 4c# 4f# 4a	.
4BB 4Dn 4E#	.	4G# 4B 4dn 4e# 4g#	.
*v	*v	*	*
=81	=81	=81
4AA] 4C# 4F#	4A 4c# 4f# 4a	.
4AAA# 4AA#	4F# 4c#	.
=82	=82	=82
4BBB 4BB	4E 4G# 4B 4e	.
4CCn 4Cn	4F# 4A 4d#X	.
!!LO:LB:g=original
=83	=83	=83
4BBB 4BB	4G# 4B 4e	.
4AAA 4AA	4F# 4cn 4d# 4f#	.
=84	=84	=84
*^	*	*
4GG#	4GGG#	4B 4e 4g#	.
(8.FF#L	4FFF#	4A# 4e [4cc#	>
16GG#Jk	.	.	.
=85	=85	=85	=85
*	*	*^	*
4AAn	2BBB	4cc#]	2f# 2d#	]
4BB)	.	4b	.	.
*v	*v	*	*	*
=86	=86	=86	=86
8r	(4g#	16g#LK	p
.	.	8.BJ)	.
(16EELL	.	.	.
16EJJ)	.	.	.
!	!	!LO:TX:a:i:t=legato	!
8r	(16ALK	(4A	.
.	8.aJ))	.	<
(16CnLL	.	.	.
16EEJJ)	.	.	.
=87	=87	=87	=87
8r	4f#	16f#LK	.
.	.	8.A 8.cnJ	.
(16EELL	.	.	.
16D#JJ)	.	.	.
8r	(16BLK	4G#	.
.	8.eJ)	.	.
(16ELL	.	.	.
16EEJJ)	.	.	.
=88	=88	=88	=88
8r	(4d#/	16d#Lk\	.
.	.	8.F#< 8.A<J/)	.
(>16EELL<	.	.	.
16CnJJ)	.	.	.
8r	(16G#<LK\	4E<\	.
.	8.eJ/)	.	.
(>16BBLL<	.	.	.
16EEJJ)	.	.	.
!!LO:LB:g=original
=89	=89	=89	=89
8rEE	(4cn	(<16ALK\	.
.	.	8.E<J/)	>
(>16EELL	.	.	.
16CnJJ)	.	.	.
8rGG	4B)	(<16ALK\	.
.	.	8.F#<J/)	.
(>16D#LL	.	.	.
16EEJJ)	.	.	.
=90	=90	=90	=90
8rD	(4c#X	(16c#XLK	.
.	.	8.G#J)	.
(16EELL	.	.	.
16EJJ)	.	.	.
8rD	4B)	(16BLK	.
.	.	8.G#J)	.
(16ELL	.	.	.
16EEJJ)	.	.	.
=91	=91	=91	=91
8rGG	(4cn	(<16ALK\	pp
.	.	8.F#<J)/	.
(>16EELL	.	.	.
16D#JJ)	.	.	.
8rGG	4B)	(16ALK\	<
.	.	8.F#<J)/	.
(>16D#LL	.	.	.
16EEJJ)	.	.	.
=92	=92	=92	=92
8rD	(4c#	(16c#XLK	.
.	.	8.G#J)	.
(16EELL	.	.	.
16EJJ)	.	.	.
8r	4B)	(16BLK	.
.	.	8.G#J)	.
(16D#LL	.	.	.
16EJJ)	.	.	.
=93	=93	=93	=93
8r	(4a	(16aLK	.
.	.	8.BJ)	.
(16D#LL	.	.	.
16EJJ)	.	.	.
8r	4g#)	(16g#LK	.
.	.	8.BJ)	.
(16d#LL	.	.	.
16eJJ)	.	.	.
!!LO:LB:g=original
=94	=94	=94	=94
8r	(4cc#	(16cc#LK	.
.	.	8.g#J)	.
(16ELL	.	.	.
16eJJ)	.	.	.
8r	4b)	(16bLK	.
.	.	8.g#J)	.
(16d#LL	.	.	.
16eJJ)	.	.	.
=95	=95	=95	=95
8r	(4aa	(16aaLK	.
.	.	8.bJ)	.
*clefG2	*	*	*
(16d#LL	.	.	.
16eJJ)	.	.	.
8r	4gg#)	(16gg#LK	.
.	.	8.bJ)	.
(16dd#LL	.	.	.
16eeJJ)	.	.	.
=96	=96	=96	=96
8r	(4ccc#	(16ccc#LK	.
.	.	8.gg#J)	.
(16eLL	.	.	.
16eeJJ)	.	.	.
8r	4bb)	(16bbLK	.
.	.	8.gg#J)	.
(16dd#LL	.	.	.
16eeJJ)	.	.	.
=97	=97	=97	=97
8r	(4ccc#	(16ccc#LK	sf
.	.	8.gg#J)	.
(16ddd#LL	.	.	.
16eeeJJ)	.	.	.
8r	4bb)	(16bbLK	p
.	.	8.gg#J)	.
(16ggg#LL	.	.	.
16bbbJJ)	.	.	.
*	*v	*v	*
=98	=98	=98
8r	8r	.
*clefF4	*clefF4	*
*ped	*	*
[4.EE [4.GG# [4.BB	[4.E [4.G# [4.B	p
=99	=99	=99
4EE;] 4GG#;] 4BB;]	4E;] 4G#;] 4B;]	.
*Xped	*	*
==	==	==
*-	*-	*-
!!!RDF**kern: > = above
!!!RDF**kern: < = below
!!!RDF**dynam: > = dim.
!!!verovio: beamFrenchStyle
!!!LOR: Durand 1915, plates 9327/9328, Paul Dukas, ed.
!!!PED: Dukas, Paul
!!!URL-vhv: https://verovio.humdrum.org/?file=beethoven/sonatas/sonata30-1.krn
!!!URL-pdf: https://github.com/craigsapp/beethoven-piano-sonatas/blob/master/reference-edition/sonata30-1.pdf
!!!ENC: Craig Stuart Sapp
!!!END: 2005/08/28
!!!EED: Craig Stuart Sapp
!!!EEV: 2023/04/05
